!!!OTL: Molihua(2)
!!!ARE: Asia, China,ÿLiaoning, Changhai
!! III, 276
!!!SCT: C1559
!!!YEM: Copyright 1995, estate of Helmut Schaffrath.
**kern
*ICvox
*Ivox
*M2/4
*k[f#c#]
*D:
{8.b
16dd
8b
8a
=1
8.b
16a
16.b
32dd
16ee
16ff#
=2
8dd
8b
[4a
=3
8a]
8f#
8e
8f#
=4
2a}
=5
{8.b
16dd
8b
8a
=6
8.b
16a
16.b
32dd
16ee
16ff#
=7
8dd
8b
[4a
=8
8a]
8f#
8e
8f#
=9
8a
8r}
{8a
8f#
=10
4.a
16f#
16a
=11
8b
8dd
8b
8a
=12
4f#
8a
8f#}
=13
{8e
8f#
8e
8e
=14
8f#
8a
8f#
8e
=15
8a
4d
8e
=16
2d}
=17
{8d
8B
8a
8f#
=18
4.e
8f#
=19
4a
4r
=20
8b
8dd
8b
8a
=21
4f#
8a
8f#}
=22
{8.e
16f#
8e
8d
=23
8d
8A
4B
=24
4r}
{4dd
=25
4.ee
8ff#
=26
8dd
8ee
8dd
8b
=27
8a
8b
8dd
8ee
=28
8b
8a
8f#
16e
16f#
=29
2a}
==
!!!AGN: Xiaodiao, Shidiao, Molihua diao
!!!AMT: simple duple
!!!AIN: vox
!!!EED: Helmut Schaffrath
!!!EEV: 1.0
*-
!!!ONB: Tied note syntax fixed by Craig Sapp, 2004/05/03/
